X: 1
T: Scotland's Gardens
T: 8x32R 3C (Roy Goldring)
P: Joe Murphy's Reel
C: Donald Ridley
C: from John Chambers, mods. T. Traub 3-17-2012
R: reel
M: C|
L: 1/8
K: D
|: "D"Ad"A"ce "D"d2Ac | "D"d2AG FDD2 | "Em"Be"B"^df "Em"e2Bd | "Em"e2BA "A7"GEE2 |  "D"Ad"A"ce "D"d2Ac |
"D"d2AG FDDF | "Em"EFGA Bcde | "A7"(3fga eg "D"fdd2 :: "D"FDDE F2-FE | Ddcd "B7"AFF2 | "Em"GEEF G2GF |
"Em"Eeed "A7"cBAG |  "D"FDDE F2-FE | Ddcd AFDf | "Em"gfed cBAG | "A7"(3FGA EG "D"FDD2 :|

